icons/svg/tag-multiple.svg

﻿<?xml version="1.0" encoding="utf-8"?>
<!DOCTYPE svg PUBLIC "-//W3C//DTD SVG 1.1//EN" "http://www.w3.org/Graphics/SVG/1.1/DTD/svg11.dtd">
<svg xmlns="http://www.w3.org/2000/svg" xmlns:xlink="http://www.w3.org/1999/xlink" version="1.1" baseProfile="full" width="24" height="24" viewBox="0 0 24.00 24.00" enable-background="new 0 0 24.00 24.00" xml:space="preserve">
	<path fill="#000000" fill-opacity="1" stroke-width="0.2" stroke-linejoin="round" d="M 5.49875,8.99951C 6.32776,8.99951 6.99875,8.32747 6.99875,7.49951C 6.99875,6.67057 6.32776,5.99951 5.49875,5.99951C 4.67076,5.99951 3.99875,6.67057 3.99875,7.49951C 3.99875,8.32747 4.67076,8.99951 5.49875,8.99951 Z M 17.4098,11.5801C 17.7738,11.9421 17.9988,12.4441 17.9988,12.9991C 17.9988,13.5511 17.7758,14.0501 17.4138,14.4131L 12.4138,19.4131C 12.0518,19.7741 11.5518,19.9991 10.9988,19.9991C 10.4478,19.9991 9.94781,19.7751 9.58481,19.4131L 2.58681,12.4151C 2.22382,12.0531 1.99881,11.5521 1.99881,10.9991L 1.99875,5.99959C 1.99875,4.89461 2.89475,3.99959 3.99875,3.99959L 8.99881,3.99911C 9.55181,3.99911 10.0518,4.22209 10.4138,4.58415L 17.4098,11.5801 Z M 13.5363,5.70634L 14.5363,4.70637L 21.411,11.581C 21.775,11.943 22,12.445 22,13C 22,13.552 21.777,14.051 21.415,14.414L 16.0358,19.7932L 15.0358,18.7932L 20.75,13L 13.5363,5.70634 Z "/>
</svg>

<svg xmlns="http://www.w3.org/2000/svg" version="1.1" baseProfile="full" width="24" height="24" viewBox="0 0 24.00 24.00" xml:space="preserve"><path fill="#000" fill-opacity="1" stroke-width=".2" stroke-linejoin="round" d="M5.5 9C6.327 9 7 8.327 7 7.5 7 6.67 6.327 6 5.5 6 4.67 6 4 6.67 4 7.5 4 8.327 4.67 9 5.5 9zm11.91 2.58c.364.362.59.864.59 1.42 0 .55-.224 1.05-.586 1.413l-5 5c-.362.36-.862.586-1.415.586-.552 0-1.052-.225-1.415-.587l-6.998-6.998C2.224 12.053 2 11.552 2 11V6c0-1.105.895-2 2-2h5c.552 0 1.052.222 1.414.584l6.996 6.996zm-3.874-5.874l1-1 6.875 6.875c.365.363.59.865.59 1.42 0 .552-.223 1.05-.585 1.414l-5.38 5.38-1-1L20.75 13l-7.214-7.294z"/></svg>
